src/4-icons/hand-open.svg

<svg width="260" height="260" viewBox="0 0 260 260" fill="none" xmlns="http://www.w3.org/2000/svg">
<path d="M233.428 85.0454C231.946 81.9 229.553 79.4554 226.798 77.7918C224.016 76.1282 220.818 75.2182 217.516 75.2182C214.214 75.2182 210.756 76.18 207.766 78.26C204.776 80.34 202.358 83.5636 200.903 87.5682L200.877 87.62L197.055 98.41L203.114 47.8918L203.139 47.6836C203.191 47.1118 203.217 46.539 203.217 45.9936C203.243 40.2736 200.825 35.3072 197.289 32.0318C193.753 28.73 189.203 26.9618 184.575 26.9364C180.935 26.9364 177.114 28.1318 174.071 30.7846C171.029 33.411 169.001 37.3882 168.376 42.0946V42.0682L162.448 83.8236C161.85 72.1236 161.226 60.3972 160.68 50.7772C160.368 45.4472 160.108 40.7672 159.874 37.1018C159.64 33.41 159.458 30.7572 159.329 29.3018C159.094 26.7536 158.419 24.4136 157.327 22.36C155.715 19.2654 153.193 16.9518 150.412 15.5482C147.63 14.1182 144.588 13.4946 141.598 13.4946C136.996 13.52 132.446 14.9246 128.702 17.811C126.856 19.241 125.218 21.0874 124.048 23.2964C122.878 25.5054 122.203 28.1064 122.203 30.81C122.203 31.5382 122.255 32.2918 122.333 33.0464C122.385 33.4364 122.463 34.321 122.568 35.4646C122.932 39.8064 123.452 48.36 124.049 58.63C124.725 70.3818 125.479 84.4736 126.155 97.37C124.283 91.6246 122.359 85.7482 120.513 80.1064C115.703 65.3118 111.465 52.2864 110.346 48.6464C109.176 44.7718 106.758 41.6264 103.768 39.7028C100.805 37.7528 97.3983 36.9474 94.1219 36.9474C89.4683 36.9739 84.9173 38.5074 81.2255 41.3928C79.3801 42.8492 77.7673 44.6682 76.5973 46.8528C75.4273 49.0374 74.7255 51.5846 74.7255 54.2628C74.7255 55.9528 74.9855 57.6682 75.5309 59.3846C76.6745 63.1028 83.3309 84.8392 89.7009 105.665C92.8727 116.065 95.9927 126.256 98.3073 133.823C100.101 139.699 101.401 143.963 101.921 145.601C101.895 149.397 101.791 166.193 101.791 168.533C101.791 170.118 101.115 171.523 99.6855 172.745C98.2819 173.966 96.1755 174.799 93.8619 174.799C91.0537 174.774 87.9337 173.707 84.8919 170.276C83.9037 169.132 82.6037 167.779 81.0437 166.219C76.4155 161.514 69.5773 154.961 63.8837 149.241C62.0373 147.396 59.8791 146.069 57.6701 145.263C55.4337 144.457 53.1455 144.145 50.9619 144.145C47.6601 144.145 44.5137 144.821 41.6019 145.756C37.2601 147.16 33.4119 149.188 30.6037 150.853C27.7955 152.517 26.0019 153.869 25.8983 153.947L24.9883 161.384L92.5883 244.584L96.6183 246.507C96.6183 246.507 101.506 246.507 108.968 246.507C131.38 246.507 177.218 246.507 185.018 246.507C188.06 246.507 190.842 246.117 193.365 245.182C195.263 244.48 197.005 243.466 198.461 242.166C200.671 240.216 202.205 237.771 203.298 235.197C204.389 232.597 205.117 229.789 205.716 226.722C207.379 218.376 210.292 201.58 212.866 185.044C214.14 176.776 215.336 168.612 216.246 161.592C217.104 154.91 217.676 149.346 217.806 145.498C217.962 144.953 218.3 143.835 218.794 142.353C220.666 136.555 224.489 125.348 227.816 115.625C229.479 110.763 231.039 106.265 232.158 102.963C233.301 99.6877 234.003 97.6077 234.003 97.6077L234.055 97.4259C234.626 95.5805 234.913 93.7341 234.913 91.9405C234.965 89.5223 234.418 87.1305 233.431 85.0505L233.428 85.0454ZM224.172 94.4064C223.703 95.7846 219.855 106.913 216.008 118.223C213.953 124.255 211.9 130.339 210.34 134.993C209.56 137.333 208.91 139.309 208.442 140.765C208.207 141.493 208.025 142.09 207.87 142.585C207.792 142.845 207.74 143.053 207.688 143.286L207.584 143.703C207.559 143.911 207.506 144.066 207.481 144.691C207.429 147.733 206.857 153.453 205.973 160.317C203.347 180.962 197.964 212.604 195.546 224.719C195.078 227.111 194.558 229.087 193.961 230.596C193.519 231.739 193.051 232.624 192.583 233.274C191.854 234.262 191.204 234.808 190.139 235.276C189.074 235.743 187.461 236.107 185.043 236.107C175.734 236.107 112.399 236.107 99.1126 236.107L36.7645 159.381C37.388 159.017 38.0645 158.653 38.7662 158.289C40.6645 157.301 42.8216 156.339 44.9545 155.664C47.0873 154.988 49.2191 154.572 50.9862 154.572C52.208 154.572 53.248 154.754 54.1327 155.067C55.0162 155.405 55.7973 155.872 56.5509 156.627C60.4255 160.501 64.7409 164.713 68.5363 168.431C70.4345 170.303 72.1763 172.046 73.658 173.553C75.1398 175.06 76.3616 176.335 77.1162 177.193C81.8998 182.653 88.1144 185.253 93.8862 185.228C98.6444 185.228 103.091 183.564 106.496 180.651C109.876 177.766 112.242 173.449 112.216 168.536C112.216 167.288 112.242 161.334 112.294 155.744C112.32 150.154 112.373 144.876 112.373 144.876L112.138 143.316C112.138 143.316 87.828 63.7813 85.5134 56.2941C85.2788 55.5141 85.1752 54.8377 85.1752 54.2395C85.1752 53.2777 85.3834 52.4977 85.7998 51.7177C86.398 50.5731 87.5681 49.4295 89.1016 48.5977C90.6098 47.7659 92.4816 47.2977 94.1452 47.2977C95.7306 47.2977 97.0834 47.6877 98.0706 48.3377C99.0588 49.0141 99.8388 49.8977 100.411 51.6659C101.191 54.2405 103.322 60.8177 106.104 69.3459C114.398 94.9041 128.412 137.621 128.412 137.621L138.552 135.749C138.552 135.749 137.382 112.063 136.056 87.2595C135.406 74.8577 134.704 62.1695 134.106 52.0031C133.794 46.9331 133.534 42.4867 133.301 39.0031C133.171 37.2613 133.066 35.7785 132.962 34.5577C132.859 33.3369 132.781 32.3995 132.677 31.6977C132.625 31.3595 132.625 31.0477 132.625 30.7623C132.625 29.6959 132.86 28.8641 133.275 28.0841C133.873 26.9395 134.965 25.8741 136.499 25.0677C138.007 24.2877 139.879 23.8195 141.647 23.8195C143.702 23.8195 145.495 24.4177 146.691 25.3541C147.289 25.8223 147.782 26.3941 148.172 27.1487C148.562 27.9033 148.901 28.8641 149.004 30.1905C149.108 31.3351 149.29 34.0123 149.524 37.6523C150.304 50.4441 151.656 75.5859 152.774 97.5305C153.346 108.502 153.866 118.669 154.231 126.079C154.594 133.515 154.829 138.169 154.829 138.195L165.177 138.663L178.697 43.4515V43.4251C179.087 40.7205 179.997 39.3951 180.933 38.5369C181.895 37.7051 183.092 37.2887 184.573 37.2623C186.445 37.2359 188.63 38.0687 190.19 39.5505C191.75 41.0587 192.79 43.0087 192.815 45.9205C192.815 46.1805 192.815 46.4669 192.79 46.7787L181.194 143.499L191.256 145.864L210.704 91.0823C211.536 88.7941 212.654 87.5469 213.773 86.7405C214.916 85.9605 216.164 85.5959 217.516 85.5705C219.311 85.5705 221.208 86.2987 222.508 87.4423C223.158 88.0141 223.652 88.6905 224.016 89.4177C224.354 90.1723 224.562 90.9777 224.562 91.9659C224.562 92.7205 224.458 93.4995 224.172 94.4095V94.4064Z" fill="black"/>
</svg>

<svg width="260" height="260" fill="none" xmlns="http://www.w3.org/2000/svg"><path d="M233.428 85.045c-1.482-3.145-3.875-5.59-6.63-7.253a18.08 18.08 0 0 0-9.282-2.574c-3.302 0-6.76.962-9.75 3.042s-5.408 5.304-6.863 9.308l-.026.052-3.822 10.79 6.059-50.518.025-.208c.052-.572.078-1.145.078-1.69.026-5.72-2.392-10.687-5.928-13.962-3.536-3.302-8.086-5.07-12.714-5.096-3.64 0-7.461 1.196-10.504 3.849-3.042 2.626-5.07 6.603-5.695 11.31v-.027l-5.928 41.756c-.598-11.7-1.222-23.427-1.768-33.047-.312-5.33-.572-10.01-.806-13.675-.234-3.692-.416-6.345-.545-7.8-.235-2.548-.91-4.888-2.002-6.942a15.877 15.877 0 0 0-6.915-6.812c-2.782-1.43-5.824-2.053-8.814-2.053-4.602.025-9.152 1.43-12.896 4.316-1.846 1.43-3.484 3.276-4.654 5.485a16.138 16.138 0 0 0-1.845 7.514c0 .728.052 1.482.13 2.236.052.39.13 1.275.235 2.419.364 4.341.884 12.895 1.481 23.165a8071.54 8071.54 0 0 1 2.106 38.74c-1.872-5.745-3.796-11.622-5.642-17.264-4.81-14.794-9.048-27.82-10.167-31.46-1.17-3.874-3.588-7.02-6.578-8.943-2.963-1.95-6.37-2.756-9.646-2.756-4.654.027-9.205 1.56-12.897 4.446-1.845 1.456-3.458 3.275-4.628 5.46a15.741 15.741 0 0 0-1.871 7.41c0 1.69.26 3.405.805 5.122 1.143 3.718 7.8 25.454 14.17 46.28 3.172 10.4 6.292 20.591 8.606 28.158 1.794 5.876 3.094 10.14 3.614 11.778-.026 3.796-.13 20.592-.13 22.932 0 1.585-.676 2.99-2.105 4.212-1.404 1.221-3.51 2.054-5.824 2.054-2.808-.025-5.928-1.092-8.97-4.523-.988-1.144-2.288-2.497-3.848-4.057-4.629-4.705-11.467-11.258-17.16-16.978a17.138 17.138 0 0 0-6.214-3.978c-2.236-.806-4.525-1.118-6.708-1.118-3.302 0-6.448.676-9.36 1.611-4.342 1.404-8.19 3.432-10.998 5.097-2.808 1.664-4.602 3.016-4.706 3.094l-.91 7.437 67.6 83.2 4.03 1.923h88.4c3.042 0 5.824-.39 8.347-1.325 1.898-.702 3.64-1.716 5.096-3.016 2.21-1.95 3.744-4.395 4.837-6.969 1.091-2.6 1.819-5.408 2.418-8.475 1.663-8.346 4.576-25.142 7.15-41.678 1.274-8.268 2.47-16.432 3.38-23.452.858-6.682 1.43-12.246 1.56-16.094a82.55 82.55 0 0 1 .988-3.145c1.872-5.798 5.695-17.005 9.022-26.728 1.663-4.862 3.223-9.36 4.342-12.662a609.63 609.63 0 0 0 1.845-5.355l.052-.182c.571-1.846.858-3.692.858-5.486a15.434 15.434 0 0 0-1.482-6.89l-.003-.005Zm-9.256 9.361c-.469 1.379-4.317 12.507-8.164 23.817a3754.055 3754.055 0 0 0-5.668 16.77 599.62 599.62 0 0 0-1.898 5.772c-.235.728-.417 1.325-.572 1.82-.078.26-.13.468-.182.701l-.104.417c-.025.208-.078.363-.103.988-.052 3.042-.624 8.762-1.508 15.626-2.626 20.645-8.009 52.287-10.427 64.402-.468 2.392-.988 4.368-1.585 5.877-.442 1.143-.91 2.028-1.378 2.678-.729.988-1.379 1.534-2.444 2.002-1.065.467-2.678.831-5.096.831h-85.93l-62.349-76.726a46.26 46.26 0 0 1 2.002-1.092c1.898-.988 4.056-1.95 6.189-2.625 2.132-.676 4.264-1.092 6.031-1.092 1.222 0 2.262.182 3.147.495a6.632 6.632 0 0 1 2.418 1.56c3.874 3.874 8.19 8.086 11.985 11.804a478.475 478.475 0 0 1 5.122 5.122c1.482 1.507 2.704 2.782 3.458 3.64 4.784 5.46 10.998 8.06 16.77 8.035 4.758 0 9.205-1.664 12.61-4.577 3.38-2.885 5.746-7.202 5.72-12.115 0-1.248.026-7.202.078-12.792.026-5.59.079-10.868.079-10.868l-.235-1.56s-24.31-79.535-26.625-87.022c-.234-.78-.338-1.456-.338-2.054 0-.962.208-1.742.625-2.522.598-1.145 1.768-2.289 3.302-3.12 1.508-.832 3.38-1.3 5.043-1.3 1.586 0 2.938.39 3.926 1.04.988.676 1.768 1.56 2.34 3.328.78 2.575 2.911 9.152 5.693 17.68 8.294 25.558 22.308 68.275 22.308 68.275l10.14-1.872s-1.17-23.686-2.496-48.49c-.65-12.401-1.352-25.09-1.95-35.256-.312-5.07-.572-9.516-.805-13-.13-1.742-.235-3.224-.339-4.445-.103-1.221-.181-2.158-.285-2.86-.052-.338-.052-.65-.052-.936 0-1.066.235-1.898.65-2.678.598-1.145 1.69-2.21 3.224-3.016a11.569 11.569 0 0 1 5.148-1.248c2.055 0 3.848.598 5.044 1.534a5.326 5.326 0 0 1 1.481 1.795c.39.754.729 1.715.832 3.041.104 1.145.286 3.822.52 7.462.78 12.792 2.132 37.934 3.25 59.879.572 10.971 1.092 21.138 1.457 28.548.363 7.436.598 12.09.598 12.116l10.348.468 13.52-95.212v-.026c.39-2.704 1.3-4.03 2.236-4.888.962-.832 2.159-1.248 3.64-1.275 1.872-.026 4.057.807 5.617 2.288 1.56 1.509 2.6 3.459 2.625 6.37 0 .26 0 .547-.025.859l-11.596 96.72 10.062 2.365 19.448-54.782c.832-2.288 1.95-3.535 3.069-4.341 1.143-.78 2.391-1.145 3.743-1.17 1.795 0 3.692.728 4.992 1.871a6.46 6.46 0 0 1 1.508 1.976c.338.754.546 1.56.546 2.548 0 .755-.104 1.534-.39 2.444v-.004Z" fill="#000"/></svg>
